X:1
T: Mrs. Ross
C:
R:Jig
Q:180
K:D
M:6/8
L:1/16
|:d6 c2B2A2|B6 A2G2F2|G4B2 A2G2F2|B2E2E2 E6|
d6 c2B2A2|B6 A2G2F2|G2F2G2 A2E2G2|F2D2D2 D6|
D2F2A2 D2F2A2|c2d2c2 A2F2D2|G2B2G2 F2A2F2|B2G2E2 E6|
D2F2A2 D2F2A2|c2d2c2 A2F2D2|G2F2G2 A2E2G2|F2D2D2 D6:|
